blockchains/elrond/assets/UTK-2f80e9/logo.svg

<svg fill="none" height="262" viewBox="0 0 262 262" width="262" xmlns="http://www.w3.org/2000/svg" xmlns:xlink="http://www.w3.org/1999/xlink"><clipPath id="a"><path d="m0 0h262v262h-262z"/></clipPath><g clip-path="url(#a)"><path d="m131 262c72.349 0 131-58.651 131-131 0-72.3493-58.651-131-131-131-72.3493 0-131 58.6507-131 131 0 72.349 58.6507 131 131 131z" fill="#30367a"/><path d="m117.515 182.565v-108.6483h-31.5462v-24.7917h90.0622v24.7917h-31.546v108.6483zm-7.262 30.31c-16.2851 0-23.9895-7.827-23.9895-24.382v-107.4695h23.6945v106.3725c0 2.62.86 3.487 3.431 3.487h35.525c2.571 0 3.439-.876 3.439-3.487v-106.3725h23.678v107.4695c0 16.555-7.712 24.382-23.989 24.382z" fill="#fff"/></g></svg>

<svg width="262" height="262" viewBox="0 0 262 262" fill="none" xmlns="http://www.w3.org/2000/svg">
<g clip-path="url(#clip0_112_11049)">
<path d="M131 262C203.349 262 262 203.349 262 131C262 58.6507 203.349 0 131 0C58.6507 0 0 58.6507 0 131C0 203.349 58.6507 262 131 262Z" fill="#30367A"/>
<path d="M117.515 182.565V73.9167H85.9688V49.125H176.031V73.9167H144.485V182.565H117.515ZM110.253 212.875C93.9679 212.875 86.2635 205.048 86.2635 188.493V81.0235H109.958V187.396C109.958 190.016 110.818 190.883 113.389 190.883H148.914C151.485 190.883 152.353 190.007 152.353 187.396V81.0235H176.031V188.493C176.031 205.048 168.319 212.875 152.042 212.875H110.253Z" fill="white"/>
</g>
<defs>
<clipPath id="clip0_112_11049">
<rect width="262" height="262" fill="white"/>
</clipPath>
</defs>
</svg>
